X: 17304
T: Hey Johnny Cope
R: barndance
M: 4/4
K: Gdorian
G4 G<AB<c|d2 G2 A>GF<D|F4 F<GA<B|c2 F2 A>GF<D|
G4 G<AB<c|d2 G2 A2 G<A|G2 f<e d>cB<A|G4 G2:|

